X:56
T:Star of the County Down
M:3/4
L:1/8
K:Am
E2G2 | "Am"A4A2 | "F"A3GA2 | "C"c4c2 | "G"d4cd | 
"Am"e3dc2 | A3GE2 | "G"G6- | "Em"G2c2B2 |
"Am"A4A2 | "F"A3GA2 | "C" c4c2 | "G"d4cd |
"Am"e3dc2 | "Em"A4G2 | "Am"A6- | A2c2e2 ||
"C"g4e2 | e3dc2 | "G"d4e2 | d4cd |
"Am"e3dc2 | A3GE2 | "Em"G6- | G2"E7"c2B2 |
"Am"A4A2 | "F"A3GA2 | "C"c4c2 | "G"d3cd2 |
"Am"e3dc2 | "Dm"A4G2 | "Am"A6- | A4 |]
